src/assets/back-to-top.svg

<svg width="159" height="159" viewBox="0 0 159 159" fill="none" xmlns="http://www.w3.org/2000/svg">
<path d="M78.042 137.208L77.406 145.492L73.8007 145.215C72.2392 145.095 71.3192 144.216 71.4171 142.942L71.4179 142.93C71.4876 142.023 72.236 141.301 73.1581 141.251L73.1607 141.216C72.0134 141.041 71.2435 140.162 71.3268 139.077L71.3277 139.066C71.4392 137.613 72.6054 136.79 74.3736 136.926L78.042 137.208ZM74.3472 143.964L75.771 144.073L75.938 141.897L74.7267 141.804C73.7508 141.729 73.197 142.097 73.1419 142.814L73.1411 142.826C73.0904 143.486 73.5378 143.901 74.3472 143.964ZM74.6104 140.611L76.0284 140.72L76.2091 138.366L74.7165 138.252C73.7233 138.176 73.1466 138.541 73.0876 139.311L73.0867 139.322C73.0285 140.08 73.5483 140.53 74.6104 140.611Z" fill="white"/>
<path d="M69.6895 136.435L64.9708 143.864L62.9805 143.398L62.0537 134.648L63.8309 135.064L63.9828 137.169L66.842 137.838L67.9123 136.019L69.6895 136.435ZM64.3626 142.066L66.1531 139.013L64.0787 138.528L64.329 142.058L64.3626 142.066Z" fill="white"/>
<path d="M57.6014 132.733C59.855 133.641 60.6632 135.717 59.6624 138.2L59.6602 138.206C58.6594 140.689 56.6362 141.612 54.3879 140.706C52.5188 139.952 51.654 138.232 52.1631 136.538L52.1771 136.487L53.7472 137.12L53.732 137.219C53.5713 138.142 53.9776 138.951 54.9389 139.339C56.1725 139.836 57.3632 139.161 58.0133 137.548L58.0154 137.543C58.6697 135.919 58.284 134.597 57.0504 134.1C56.1211 133.725 55.2544 133.997 54.6781 134.826L54.6459 134.875L53.0758 134.242L53.1048 134.186C53.9151 132.606 55.7376 131.981 57.6014 132.733Z" fill="white"/>
<path d="M52.473 130.608L48.2272 137.75L46.7325 136.861L48.6745 133.594L48.6398 133.574L44.0798 135.284L42.4168 134.295L46.8498 132.664L46.4795 127.045L48.2662 128.107L48.5183 132.336L49.6778 131.907L50.9783 129.719L52.473 130.608Z" fill="white"/>
<path d="M36.6649 118.368L31.5325 122.942L33.1299 124.735L32.0596 125.689L27.704 120.801L28.7743 119.847L30.3756 121.644L35.508 117.07L36.6649 118.368Z" fill="white"/>
<path d="M30.6433 110.3C31.9859 112.374 31.4345 114.562 29.2162 115.999L29.2066 116.005C26.9883 117.442 24.7642 117.037 23.4278 114.973C22.0882 112.905 22.6365 110.711 24.85 109.278L24.8596 109.272C27.0779 107.835 29.3006 108.227 30.6433 110.3ZM29.4061 111.102C28.6549 109.942 27.2686 109.824 25.8236 110.76L25.8139 110.766C24.3592 111.708 23.9232 113.027 24.665 114.172C25.4036 115.313 26.7831 115.462 28.2426 114.517L28.2523 114.51C29.7118 113.565 30.1478 112.247 29.4061 111.102Z" fill="white"/>
<path d="M23.6824 95.3232L17.0534 97.1449L17.6896 99.4601L16.3071 99.84L14.5724 93.5274L15.9548 93.1475L16.5926 95.4682L23.2216 93.6466L23.6824 95.3232Z" fill="white"/>
<path d="M21.8659 85.4214C22.1492 87.8752 20.6839 89.5919 18.0585 89.895L18.047 89.8963C15.4217 90.1994 13.6082 88.8496 13.3262 86.4072C13.0436 83.9592 14.5082 82.2368 17.1279 81.9343L17.1393 81.933C19.7647 81.6299 21.5826 82.9676 21.8659 85.4214ZM20.4016 85.5904C20.2431 84.2177 19.0529 83.4973 17.3427 83.6947L17.3313 83.696C15.6096 83.8948 14.634 84.8826 14.7905 86.2382C14.9463 87.5881 16.1163 88.334 17.8437 88.1346L17.8551 88.1333C19.5825 87.9339 20.5581 86.946 20.4016 85.5904Z" fill="white"/>
<path d="M21.3069 79.8353L13.0045 79.5171L13.1324 76.18C13.1994 74.4309 14.3719 73.3062 16.0807 73.3717L16.0922 73.3721C17.801 73.4376 18.884 74.6488 18.8169 76.3979L18.7556 77.9974L21.3735 78.0977L21.3069 79.8353ZM14.4912 76.6585L14.4462 77.8322L17.3978 77.9453L17.4428 76.7716C17.4809 75.7762 16.9741 75.1691 16.0305 75.1329L16.019 75.1325C15.0754 75.0963 14.5293 75.6631 14.4912 76.6585Z" fill="white"/>
<path d="M31.3904 46.3738L24.7827 41.3369L26.9747 38.4612C27.9242 37.2157 29.1621 36.9214 30.1787 37.6962L30.1878 37.7032C30.9113 38.2547 31.1107 39.2754 30.6518 40.0768L30.6793 40.0978C31.4496 39.2297 32.606 39.0614 33.4714 39.7211L33.4806 39.7281C34.6391 40.6112 34.6959 42.0373 33.6208 43.4477L31.3904 46.3738ZM27.7282 39.6003L26.8626 40.7359L28.598 42.0588L29.3345 41.0926C29.9279 40.3142 29.9205 39.6496 29.3481 39.2133L29.3389 39.2063C28.8123 38.8049 28.2204 38.9546 27.7282 39.6003ZM30.3989 41.6433L29.5368 42.7744L31.4142 44.2055L32.3217 43.0149C32.9256 42.2227 32.9321 41.5399 32.3185 41.0721L32.3093 41.0652C31.7049 40.6044 31.0447 40.7962 30.3989 41.6433Z" fill="white"/>
<path d="M36.5794 39.783L32.909 31.7843L34.3817 30.3669L42.2298 34.345L40.9147 35.6107L39.0651 34.5939L36.9493 36.6301L37.8945 38.5173L36.5794 39.783ZM34.7488 32.2512L36.3374 35.4131L37.8724 33.9358L34.7736 32.2272L34.7488 32.2512Z" fill="white"/>
<path d="M46.2577 31.6493C44.2703 33.0472 42.0882 32.5969 40.5478 30.407L40.5445 30.4023C39.0042 28.2124 39.3294 26.0126 41.312 24.618C42.9604 23.4586 44.8745 23.668 46.02 25.0163L46.0545 25.0554L44.67 26.0293L44.5948 25.9625C43.908 25.3263 43.0078 25.2274 42.1601 25.8237C41.0722 26.5889 40.9913 27.9551 41.9917 29.3773L41.995 29.3821C43.002 30.8137 44.3218 31.2089 45.4097 30.4436C46.2291 29.8673 46.4724 28.9922 46.0897 28.0577L46.0659 28.004L47.4505 27.0301L47.4823 27.0852C48.3673 28.6237 47.9013 30.4932 46.2577 31.6493Z" fill="white"/>
<path d="M50.8288 28.4995L47.1422 21.0538L48.7005 20.2822L50.3867 23.6877L50.4228 23.6699L51.4662 18.9128L53.1999 18.0544L52.1597 22.6621L57.0775 25.4056L55.2148 26.3279L51.5278 24.2407L51.2579 25.4473L52.3871 27.728L50.8288 28.4995Z" fill="white"/>
<path d="M69.6949 21.8837L68.6454 15.0894L66.2726 15.4559L66.0537 14.039L72.5236 13.0397L72.7424 14.4566L70.3639 14.824L71.4133 21.6182L69.6949 21.8837Z" fill="white"/>
<path d="M79.634 21.1439C77.1639 21.1439 75.6266 19.4915 75.6266 16.8486V16.8371C75.6266 14.1943 77.1754 12.5476 79.634 12.5476C82.0983 12.5476 83.6414 14.2 83.6414 16.8371V16.8486C83.6414 19.4915 82.1041 21.1439 79.634 21.1439ZM79.634 19.6699C81.0159 19.6699 81.868 18.5702 81.868 16.8486V16.8371C81.868 15.104 80.9986 14.0216 79.634 14.0216C78.2752 14.0216 77.4 15.0983 77.4 16.8371V16.8486C77.4 18.5875 78.2694 19.6699 79.634 19.6699Z" fill="white"/>
<path d="M96.0949 23.5133L98.1692 16.9588L95.8801 16.2344L96.3126 14.8675L102.554 16.8428L102.122 18.2097L99.827 17.4835L97.7527 24.0379L96.0949 23.5133Z" fill="white"/>
<path d="M105.394 27.3709C103.18 26.2749 102.536 24.1118 103.708 21.7434L103.713 21.7331C104.886 19.3647 107.005 18.5762 109.208 19.6671C111.416 20.7606 112.066 22.9262 110.896 25.2894L110.891 25.2998C109.718 27.6682 107.607 28.4669 105.394 27.3709ZM106.048 26.05C107.286 26.6631 108.538 26.0557 109.302 24.5129L109.307 24.5026C110.076 22.9494 109.777 21.5936 108.554 20.9881C107.336 20.3851 106.074 20.9617 105.303 22.52L105.298 22.5303C104.526 24.0886 104.825 25.4445 106.048 26.05Z" fill="white"/>
<path d="M110.386 29.938L115.166 23.1422L117.898 25.0635C119.33 26.0705 119.636 27.666 118.652 29.0647L118.646 29.0741C117.662 30.4729 116.057 30.7235 114.625 29.7164L113.316 28.7956L111.809 30.9384L110.386 29.938ZM116.758 25.9439L115.797 25.2682L114.098 27.6841L115.058 28.3599C115.873 28.933 116.658 28.8376 117.201 28.0652L117.208 28.0558C117.751 27.2834 117.572 26.517 116.758 25.9439Z" fill="white"/>
<path d="M132.992 56.5903L140.811 53.7819L142.033 57.185C142.563 58.6589 142.137 59.858 140.934 60.2901L140.923 60.294C140.067 60.6015 139.102 60.2139 138.679 59.3932L138.646 59.4049C138.956 60.5233 138.469 61.5854 137.445 61.9532L137.434 61.9571C136.063 62.4495 134.835 61.722 134.235 60.053L132.992 56.5903ZM140.668 57.1982L140.185 55.8544L138.131 56.592L138.542 57.7354C138.873 58.6566 139.435 59.0115 140.112 58.7682L140.123 58.7643C140.746 58.5405 140.942 57.9623 140.668 57.1982ZM137.501 58.3294L137.021 56.991L134.799 57.7889L135.305 59.1978C135.641 60.1353 136.211 60.5119 136.937 60.2511L136.948 60.2472C137.663 59.9903 137.861 59.3319 137.501 58.3294Z" fill="white"/>
<path d="M135.703 64.5284L144.412 65.7954L144.801 67.802L137.196 72.2271L136.849 70.4352L138.708 69.4354L138.148 66.5527L136.051 66.3202L135.703 64.5284ZM143.02 67.0858L139.503 66.7006L139.908 68.792L143.027 67.1198L143.02 67.0858Z" fill="white"/>
<path d="M137.27 77.0732C137.177 74.6452 138.741 73.0583 141.416 72.9558L141.422 72.9555C144.097 72.853 145.767 74.3217 145.86 76.7439C145.937 78.7577 144.721 80.2506 142.966 80.4791L142.915 80.4869L142.85 78.7953L142.947 78.7686C143.854 78.5379 144.426 77.836 144.387 76.8004C144.336 75.4713 143.233 74.6608 141.495 74.7274L141.49 74.7276C139.741 74.7947 138.692 75.6877 138.743 77.0167C138.781 78.0179 139.383 78.6977 140.376 78.8844L140.434 78.8937L140.498 80.5853L140.435 80.5819C138.662 80.4885 137.347 79.0812 137.27 77.0732Z" fill="white"/>
<path d="M137.429 82.6221L145.682 83.575L145.483 85.3024L141.708 84.8666L141.703 84.9066L145.129 88.3682L144.907 90.29L141.605 86.9123L136.629 89.5488L136.867 87.484L140.623 85.5238L139.757 84.6414L137.229 84.3495L137.429 82.6221Z" fill="white"/>
<path d="M132.727 102.054L139 104.866L139.982 102.675L141.29 103.262L138.612 109.235L137.304 108.649L138.289 106.453L132.015 103.641L132.727 102.054Z" fill="white"/>
<path d="M127.828 110.849C129.171 108.775 131.393 108.383 133.612 109.82L133.621 109.826C135.84 111.263 136.38 113.458 135.044 115.521C133.704 117.59 131.478 117.987 129.265 116.553L129.255 116.547C127.037 115.111 126.485 112.922 127.828 110.849ZM129.065 111.65C128.314 112.81 128.774 114.123 130.219 115.059L130.229 115.065C131.683 116.007 133.065 115.866 133.806 114.72C134.545 113.58 134.117 112.26 132.657 111.315L132.648 111.308C131.188 110.363 129.807 110.505 129.065 111.65Z" fill="white"/>
<path d="M117.009 123.327L121.383 128.631L123.235 127.104L124.147 128.21L119.097 132.375L118.185 131.269L120.041 129.738L115.667 124.434L117.009 123.327Z" fill="white"/>
<path d="M108.716 129.035C110.84 127.773 113.005 128.408 114.356 130.68L114.362 130.69C115.712 132.961 115.223 135.168 113.109 136.425C110.991 137.684 108.82 137.052 107.473 134.785L107.467 134.775C106.116 132.504 106.593 130.298 108.716 129.035ZM109.47 130.302C108.282 131.009 108.111 132.389 108.991 133.869L108.997 133.879C109.883 135.369 111.183 135.855 112.356 135.158C113.524 134.463 113.726 133.091 112.837 131.596L112.832 131.586C111.943 130.091 110.643 129.605 109.47 130.302Z" fill="white"/>
<path d="M103.848 131.831L106.953 139.537L103.856 140.785C102.233 141.44 100.727 140.83 100.087 139.244L100.083 139.233C99.4438 137.647 100.106 136.163 101.73 135.509L103.214 134.911L102.235 132.481L103.848 131.831ZM103.737 139.35L104.826 138.911L103.722 136.171L102.633 136.61C101.709 136.982 101.362 137.693 101.715 138.569L101.719 138.58C102.072 139.456 102.813 139.722 103.737 139.35Z" fill="white"/>
<circle cx="129" cy="41" r="2" fill="#D9D9D9"/>
<circle cx="89" cy="142" r="2" fill="#D9D9D9"/>
<circle cx="21" cy="58" r="2" fill="#D9D9D9"/>
</svg>

<svg width="159" height="159" fill="none" xmlns="http://www.w3.org/2000/svg"><path d="m78.042 137.208-.636 8.284-3.605-.277c-1.562-.12-2.482-.999-2.384-2.273v-.012a1.84 1.84 0 0 1 1.741-1.679l.003-.035c-1.148-.175-1.918-1.054-1.834-2.139v-.011c.112-1.453 1.278-2.276 3.047-2.14l3.668.282Zm-3.695 6.756 1.424.109.167-2.176-1.211-.093c-.976-.075-1.53.293-1.585 1.01v.012c-.052.66.396 1.075 1.205 1.138Zm.263-3.353 1.418.109.181-2.354-1.493-.114c-.993-.076-1.57.289-1.628 1.059l-.001.011c-.059.758.461 1.208 1.523 1.289ZM69.69 136.435l-4.72 7.429-1.99-.466-.926-8.75 1.777.416.152 2.105 2.859.669 1.07-1.819 1.777.416Zm-5.327 5.631 1.79-3.053-2.074-.485.25 3.53.034.008ZM57.601 132.733c2.254.908 3.062 2.984 2.061 5.467l-.002.006c-1 2.483-3.024 3.406-5.272 2.5-1.87-.754-2.734-2.474-2.225-4.168l.014-.051 1.57.633-.015.099c-.16.923.246 1.732 1.207 2.12 1.233.497 2.424-.178 3.074-1.791l.002-.005c.655-1.624.269-2.946-.965-3.443-.929-.375-1.796-.103-2.372.726l-.032.049-1.57-.633.029-.056c.81-1.58 2.633-2.205 4.496-1.453ZM52.473 130.608l-4.246 7.142-1.494-.889 1.942-3.267-.035-.02-4.56 1.71-1.663-.989 4.433-1.631-.37-5.619 1.786 1.062.252 4.229 1.16-.429 1.3-2.188 1.495.889ZM36.665 118.368l-5.133 4.574 1.598 1.793-1.07.954-4.356-4.888 1.07-.954 1.602 1.797 5.132-4.574 1.157 1.298ZM30.643 110.3c1.343 2.074.791 4.262-1.427 5.699l-.01.006c-2.218 1.437-4.442 1.032-5.778-1.032-1.34-2.068-.791-4.262 1.422-5.695l.01-.006c2.218-1.437 4.44-1.045 5.783 1.028Zm-1.237.802c-.751-1.16-2.137-1.278-3.582-.342l-.01.006c-1.455.942-1.89 2.261-1.149 3.406.739 1.141 2.118 1.29 3.578.345l.01-.007c1.459-.945 1.895-2.263 1.153-3.408ZM23.682 95.323l-6.629 1.822.637 2.315-1.383.38-1.735-6.313 1.383-.38.638 2.321 6.629-1.821.46 1.676ZM21.866 85.421c.283 2.454-1.182 4.17-3.808 4.474l-.011.001c-2.625.303-4.439-1.046-4.72-3.489-.283-2.448 1.181-4.17 3.8-4.473l.012-.001c2.626-.303 4.444 1.035 4.727 3.488Zm-1.464.17c-.159-1.373-1.35-2.094-3.06-1.896l-.01.001c-1.722.199-2.698 1.187-2.542 2.542.156 1.35 1.326 2.096 3.054 1.897l.011-.002c1.727-.2 2.703-1.187 2.547-2.543ZM21.307 79.835l-8.302-.318.127-3.337c.067-1.75 1.24-2.874 2.949-2.808h.011c1.709.066 2.792 1.277 2.725 3.026l-.061 1.6 2.617.1-.066 1.737ZM14.49 76.66l-.045 1.173 2.952.113.045-1.173c.038-.996-.469-1.603-1.413-1.64h-.011c-.944-.036-1.49.531-1.528 1.526ZM31.39 46.374l-6.607-5.037 2.192-2.876c.95-1.245 2.187-1.54 3.204-.765l.009.007a1.84 1.84 0 0 1 .464 2.374l.027.02c.77-.867 1.927-1.036 2.792-.376l.01.007c1.158.883 1.215 2.31.14 3.72l-2.23 2.926ZM27.728 39.6l-.865 1.136 1.735 1.323.736-.966c.594-.779.587-1.443.014-1.88l-.01-.007c-.526-.401-1.118-.251-1.61.394Zm2.67 2.043-.861 1.131 1.877 1.431.908-1.19c.604-.792.61-1.475-.004-1.943l-.009-.007c-.604-.46-1.264-.269-1.91.578ZM36.58 39.783l-3.671-7.999 1.473-1.417 7.848 3.978-1.315 1.266-1.85-1.017-2.116 2.036.946 1.887-1.316 1.266Zm-1.831-7.532 1.588 3.162 1.535-1.477-3.098-1.709-.025.024ZM46.258 31.65c-1.988 1.397-4.17.947-5.71-1.243l-.004-.005c-1.54-2.19-1.215-4.39.768-5.784 1.648-1.16 3.563-.95 4.708.398l.034.04-1.384.973-.075-.067c-.687-.636-1.587-.735-2.435-.138-1.088.765-1.169 2.131-.168 3.553l.003.005c1.007 1.432 2.327 1.827 3.415 1.062.82-.577 1.062-1.452.68-2.386l-.024-.054 1.384-.974.032.055c.885 1.539.42 3.408-1.224 4.564ZM50.829 28.5l-3.687-7.446 1.558-.772 1.687 3.406.036-.018 1.043-4.757 1.734-.859-1.04 4.608 4.918 2.744-1.863.922-3.687-2.087-.27 1.206 1.13 2.281-1.56.771ZM69.695 21.884l-1.05-6.795-2.372.367-.22-1.417 6.47-1 .22 1.418-2.38.367 1.05 6.794-1.718.266ZM79.634 21.144c-2.47 0-4.007-1.652-4.007-4.295v-.012c0-2.643 1.548-4.29 4.007-4.29 2.464 0 4.007 1.653 4.007 4.29v.012c0 2.642-1.537 4.295-4.007 4.295Zm0-1.474c1.382 0 2.234-1.1 2.234-2.821v-.012c0-1.733-.87-2.815-2.234-2.815-1.359 0-2.234 1.076-2.234 2.815v.012c0 1.738.87 2.82 2.234 2.82ZM96.095 23.513l2.074-6.554-2.289-.725.433-1.367 6.241 1.976-.432 1.367-2.295-.727-2.074 6.555-1.658-.525ZM105.394 27.37c-2.214-1.095-2.858-3.258-1.686-5.627l.005-.01c1.173-2.368 3.292-3.157 5.495-2.066 2.208 1.094 2.858 3.26 1.688 5.622l-.005.01c-1.173 2.37-3.284 3.168-5.497 2.072Zm.654-1.32c1.238.613 2.49.006 3.254-1.537l.005-.01c.769-1.554.47-2.91-.753-3.515-1.218-.603-2.48-.026-3.251 1.532l-.005.01c-.772 1.559-.473 2.915.75 3.52ZM110.386 29.938l4.78-6.796 2.732 1.922c1.432 1.006 1.738 2.602.754 4l-.006.01c-.984 1.399-2.589 1.65-4.021.642l-1.309-.92-1.507 2.142-1.423-1Zm6.372-3.994-.961-.676-1.699 2.416.96.676c.815.573 1.6.478 2.143-.295l.007-.01c.543-.772.364-1.538-.45-2.111ZM132.992 56.59l7.819-2.808 1.222 3.403c.53 1.474.104 2.673-1.099 3.105l-.011.004a1.84 1.84 0 0 1-2.244-.9l-.033.01c.31 1.12-.177 2.181-1.201 2.55l-.011.003c-1.371.492-2.599-.235-3.199-1.904l-1.243-3.463Zm7.676.608-.483-1.344-2.054.738.411 1.143c.331.922.893 1.276 1.57 1.033l.011-.004c.623-.224.819-.802.545-1.566Zm-3.167 1.131-.48-1.338-2.222.798.506 1.409c.336.937.906 1.314 1.632 1.053l.011-.004c.715-.257.913-.915.553-1.918ZM135.703 64.528l8.709 1.267.389 2.007-7.605 4.425-.347-1.792 1.859-1-.56-2.882-2.097-.233-.348-1.792Zm7.317 2.558-3.517-.385.405 2.091 3.119-1.672-.007-.034ZM137.27 77.073c-.093-2.428 1.471-4.015 4.146-4.117h.006c2.675-.103 4.345 1.366 4.438 3.788.077 2.014-1.139 3.507-2.894 3.735l-.051.008-.065-1.692.097-.026c.907-.231 1.479-.933 1.44-1.969-.051-1.329-1.154-2.14-2.892-2.073h-.005c-1.749.068-2.798.96-2.747 2.29.038 1 .64 1.68 1.633 1.867l.058.01.064 1.691-.063-.003c-1.773-.093-3.088-1.5-3.165-3.509ZM137.429 82.622l8.253.953-.199 1.727-3.775-.435-.005.04 3.426 3.461-.222 1.922-3.302-3.378-4.976 2.637.238-2.065 3.756-1.96-.866-.883-2.528-.291.2-1.728ZM132.727 102.054l6.273 2.812.982-2.191 1.308.587-2.678 5.973-1.308-.586.985-2.196-6.274-2.812.712-1.587ZM127.828 110.849c1.343-2.074 3.565-2.466 5.784-1.029l.009.006c2.219 1.437 2.759 3.632 1.423 5.695-1.34 2.069-3.566 2.466-5.779 1.032l-.01-.006c-2.218-1.436-2.77-3.625-1.427-5.698Zm1.237.801c-.751 1.16-.291 2.473 1.154 3.409l.01.006c1.454.942 2.836.801 3.577-.345.739-1.14.311-2.46-1.149-3.405l-.009-.007c-1.46-.945-2.841-.803-3.583.342ZM117.009 123.327l4.374 5.304 1.852-1.527.912 1.106-5.05 4.165-.912-1.106 1.856-1.531-4.374-5.304 1.342-1.107ZM108.716 129.035c2.124-1.262 4.289-.627 5.64 1.645l.006.01c1.35 2.271.861 4.478-1.253 5.735-2.118 1.259-4.289.627-5.636-1.64l-.006-.01c-1.351-2.271-.874-4.477 1.249-5.74Zm.754 1.267c-1.188.707-1.359 2.087-.479 3.567l.006.01c.886 1.49 2.186 1.976 3.359 1.279 1.168-.695 1.37-2.067.481-3.562l-.005-.01c-.889-1.495-2.189-1.981-3.362-1.284ZM103.848 131.831l3.105 7.706-3.097 1.248c-1.623.655-3.129.045-3.769-1.541l-.004-.011c-.64-1.586.023-3.07 1.647-3.724l1.484-.598-.979-2.43 1.613-.65Zm-.111 7.519 1.089-.439-1.104-2.74-1.089.439c-.924.372-1.271 1.083-.918 1.959l.004.011c.353.876 1.094 1.142 2.018.77Z" fill="#fff"/><circle cx="129" cy="41" r="2" fill="#D9D9D9"/><circle cx="89" cy="142" r="2" fill="#D9D9D9"/><circle cx="21" cy="58" r="2" fill="#D9D9D9"/></svg>
